src/cmd/lc_insertpagebreak.svg

<svg viewBox="0 0 24 24" xmlns="http://www.w3.org/2000/svg"><path d="m5 4v6h14v-1-5h-1-12zm1 1h12v4h-12zm-1 8v1 6h1 8 1l4-4v-1.40625-.59375-1zm1 1h12v1h-4v1 3h-8z" fill="#232629"/><path d="m6 11v1h2v-1zm5 0v1h2v-1zm5 0v1h2v-1z" fill="#762572"/></svg>

<?xml version="1.0" encoding="UTF-8" standalone="no"?>
<svg
   xmlns:dc="http://purl.org/dc/elements/1.1/"
   xmlns:cc="http://creativecommons.org/ns#"
   xmlns:rdf="http://www.w3.org/1999/02/22-rdf-syntax-ns#"
   xmlns:svg="http://www.w3.org/2000/svg"
   xmlns="http://www.w3.org/2000/svg"
   xmlns:sodipodi="http://sodipodi.sourceforge.net/DTD/sodipodi-0.dtd"
   xmlns:inkscape="http://www.inkscape.org/namespaces/inkscape"
   viewBox="0 0 24 24"
   version="1.1"
   id="svg6"
   sodipodi:docname="lc_insertpagebreak.svg"
   inkscape:version="0.92.4 (5da689c313, 2019-01-14)"
   inkscape:export-filename="/home/jupiter007/Libreoffice yaru theme/build/cmd/lc_insertpagebreak.png"
   inkscape:export-xdpi="96"
   inkscape:export-ydpi="96">
  <metadata
     id="metadata12">
    <rdf:RDF>
      <cc:Work
         rdf:about="">
        <dc:format>image/svg+xml</dc:format>
        <dc:type
           rdf:resource="http://purl.org/dc/dcmitype/StillImage" />
      </cc:Work>
    </rdf:RDF>
  </metadata>
  <defs
     id="defs10" />
  <sodipodi:namedview
     pagecolor="#ffffff"
     bordercolor="#666666"
     borderopacity="1"
     objecttolerance="10"
     gridtolerance="10"
     guidetolerance="10"
     inkscape:pageopacity="0"
     inkscape:pageshadow="2"
     inkscape:window-width="1920"
     inkscape:window-height="1011"
     id="namedview8"
     showgrid="true"
     inkscape:zoom="27.812867"
     inkscape:cx="6.2809827"
     inkscape:cy="8.8594321"
     inkscape:window-x="0"
     inkscape:window-y="32"
     inkscape:window-maximized="1"
     inkscape:current-layer="svg6">
    <inkscape:grid
       type="xygrid"
       id="grid822" />
  </sodipodi:namedview>
  <path
     d="m 5,4 v 6 H 19 V 9 4 H 18 6 Z M 6,5 H 18 V 9 H 6 Z m -1,8 v 1 6 h 1 8 5 V 16 14.59375 14 13 Z m 1,1 h 12 v 1 4 H 14 6 Z"
     id="path2"
     inkscape:connector-curvature="0"
     style="fill:#232629"
     sodipodi:nodetypes="ccccccccccccccccccccccccccccccc" />
  <path
     d="m6 11v1h2v-1zm5 0v1h2v-1zm5 0v1h2v-1z"
     fill="#762572"
     id="path4" />
</svg>
